svg/UnitedNationsOCHA-Humanitarian/disaster_drought_icon_box.svg

<svg xmlns="http://www.w3.org/2000/svg" viewBox="0 0 32 32" enable-background="new 0 0 32 32"><path fill="#407cca" d="m25.598 0h-19.2c-3.521 0-6.4 2.879-6.4 6.4v19.2c0 3.518 2.879 6.4 6.4 6.4h19.2c3.52 0 6.402-2.882 6.402-6.4v-19.2c0-3.521-2.882-6.4-6.402-6.4m-23.998 21.681h2.747l-1.01 2.298-1.739.93v-3.228m3.214 8.429c-1.705-.603-2.955-2.128-3.162-3.981l1.765-.84 2.81 3.663-1.413 1.158m-.59-5.752l1.344-2.678h6.763l.957.967-3.062 3.788-2.938 1.772-3.064-3.849m2.373 6.04l4.119-2.806 4.927 2.806h-9.05m16.664 0h-4.947l-6.707-3.651 2.905-3.62 6.531 2.174 3.44 4.865-1.222.232m3.353-.113l-.646-.155-3.232-4.681 4.922-.658 2.735.882c-.038 2.262-1.643 4.148-3.779 4.612m3.786-5.723l-1.793-.517 1.793-.486v1m0-1.835l-3.55 1.122-5.082.725-6.533-2.171-1.537-.727h.881c-.211-1.942-.493-3.412-.63-5.34h-.009c-.0001-.058-.07-1.35-.084-1.898-.103-.581-.378-.808-1.283-1.435-.5-.323-.872-.436-1.079-.431-.334 0-.628.359-.7 1.446 1.455.247 1.553 1.856 1.553 1.856.129 1.142-.433 2.813-1.728 3.245-2.391.799-2.143-3.811-.794-4.913.036-1.329.4-2.543 1.668-2.595.5.003 1.01.21 1.601.583.281.171.507.344.707.519-.021-.436-.049-.883-.049-1.345-.003-.963.151-2.02 1-2.766.447-.401.948-.61 1.434-.606 1.272.06 2.067 1.164 2.529 2.287.54-.233 1.212-.349 1.979-.081 1.962.678 3.035 4.108 2.205 5.301-1.938 2.787-6.82-2.393-5.525-4.206 0 0 .187-.244.523-.516-.382-.998-1.144-1.889-1.711-1.828-.217.004-.473.082-.796.366-.542.478-.679 1.161-.683 2.049 0 .628.076 1.327.076 2.024 0 .366.023.687.034 1.044.089.623.095 1.104.08 1.76.135 1.919.915 3.493 1.126 5.479h14.372v1.052m-20.466-7.836l.662-.271-.662 3.697c-.331-1.173 0-3.426 0-3.426m12.02.301l-3.699-4.03.691-.42c0 0 2.346 1.591 3.01 4.447"/></svg>

<?xml version="1.0" encoding="utf-8"?>
<!-- Generator: Adobe Illustrator 16.0.3, SVG Export Plug-In . SVG Version: 6.00 Build 0)  -->
<!DOCTYPE svg PUBLIC "-//W3C//DTD SVG 1.1//EN" "http://www.w3.org/Graphics/SVG/1.1/DTD/svg11.dtd">
<svg version="1.1" id="Layer_1" xmlns="http://www.w3.org/2000/svg" xmlns:xlink="http://www.w3.org/1999/xlink" x="0px" y="0px"
	 width="32px" height="32px" viewBox="0 0 32 32" enable-background="new 0 0 32 32" xml:space="preserve">
<path fill="#407CCA" d="M25.598,0H6.4C2.879,0,0,2.879,0,6.4v19.2C0,29.118,2.879,32,6.4,32h19.198C29.118,32,32,29.118,32,25.6V6.4
	C32,2.879,29.118,0,25.598,0z M1.6,21.681h2.747l-1.008,2.298L1.6,24.909V21.681z M4.814,30.11
	c-1.705-0.603-2.955-2.128-3.162-3.981l1.765-0.84l2.81,3.663L4.814,30.11z M4.224,24.358l1.344-2.678h6.763l0.957,0.967
	l-3.062,3.788l-2.938,1.772L4.224,24.358z M6.597,30.402l4.119-2.806l4.927,2.806H6.597z M23.261,30.402h-4.947l-6.707-3.651
	l2.905-3.62l6.531,2.174l3.44,4.865L23.261,30.402z M26.614,30.289l-0.646-0.155l-3.232-4.681l4.922-0.658l2.735,0.882
	C30.355,27.939,28.75,29.825,26.614,30.289z M30.4,24.566l-1.793-0.517l1.793-0.486V24.566z M30.4,22.731l-3.55,1.122l-5.082,0.725
	l-6.533-2.171l-1.537-0.727h0.881c-0.211-1.942-0.493-3.412-0.63-5.34h-0.009c-0.001-0.058-0.07-1.35-0.084-1.898
	c-0.103-0.581-0.378-0.808-1.283-1.435c-0.5-0.323-0.872-0.436-1.079-0.431c-0.334,0-0.628,0.359-0.7,1.446
	c1.455,0.247,1.553,1.856,1.553,1.856c0.129,1.142-0.433,2.813-1.728,3.245c-2.391,0.799-2.143-3.811-0.794-4.913
	c0.036-1.329,0.4-2.543,1.668-2.595c0.5,0.003,1.009,0.21,1.601,0.583c0.281,0.171,0.507,0.344,0.707,0.519
	c-0.021-0.436-0.049-0.883-0.049-1.345c-0.003-0.963,0.151-2.017,1.005-2.766C15.204,8.205,15.705,7.996,16.191,8
	c1.272,0.06,2.067,1.164,2.529,2.287c0.54-0.233,1.212-0.349,1.979-0.081c1.962,0.678,3.035,4.108,2.205,5.301
	c-1.938,2.787-6.82-2.393-5.525-4.206c0,0,0.187-0.244,0.523-0.516c-0.382-0.998-1.144-1.889-1.711-1.828
	c-0.217,0.004-0.473,0.082-0.796,0.366c-0.542,0.478-0.679,1.161-0.683,2.049c0,0.628,0.076,1.327,0.076,2.024
	c0,0.366,0.023,0.687,0.034,1.044c0.089,0.623,0.095,1.104,0.08,1.76c0.135,1.919,0.915,3.493,1.126,5.479H30.4V22.731z
	 M9.934,14.895l0.662-0.271l-0.662,3.697C9.603,17.148,9.934,14.895,9.934,14.895z M21.953,15.196l-3.699-4.027l0.691-0.42
	C18.945,10.749,21.291,12.34,21.953,15.196z"/>
</svg>
